app/assets/images/form_factors/tv.svg

<svg width="100%" height="100%" viewBox="0 0 2552 419" fill="none" xmlns="http://www.w3.org/2000/svg">
  <path
    d="M1597.71 277.967C1597.71 230.765 1632.06 193.528 1675.4 193.528C1718.74 193.528 1750.45 229.716 1750.45 277.967C1750.45 326.218 1718.21 363.456 1675.4 363.456C1632.59 363.456 1597.71 325.694 1597.71 277.967ZM1448.67 409.609H1509.45V147.376H1448.67V409.609ZM1439.15 59.7895C1439.15 82.3408 1457.65 100.698 1479.32 100.698C1500.99 100.698 1518.96 82.3408 1518.96 59.7895C1518.96 38.8102 1500.99 20.9782 1479.32 20.9782C1457.65 20.9782 1439.15 38.8102 1439.15 59.7895ZM1200.79 277.443C1200.79 230.241 1235.67 193.528 1280.59 193.528C1325.52 193.528 1360.41 230.241 1360.41 277.443C1360.41 324.645 1324.99 363.456 1280.59 363.456C1236.2 363.456 1200.79 325.169 1200.79 277.443ZM1138.96 277.443C1138.96 356.113 1201.32 418 1280.59 418C1359.88 418 1422.24 356.113 1422.24 277.443C1422.24 198.773 1360.94 138.983 1280.59 138.983C1200.26 138.983 1138.96 199.297 1138.96 277.443ZM974.583 409.609H1035.37V272.199C1035.37 217.653 1064.43 193.528 1113.06 193.528C1122.05 193.528 1128.91 194.052 1135.26 195.625V142.655C1128.91 140.557 1117.82 138.983 1105.65 138.983C1023.21 138.983 974.583 190.381 974.583 272.199V409.609ZM730.94 277.967C730.94 230.765 765.293 193.528 808.63 193.528C851.97 193.528 883.685 229.716 883.685 277.967C883.685 326.218 851.44 363.456 808.63 363.456C765.821 363.456 730.94 325.694 730.94 277.967ZM669.103 277.967C669.103 354.015 730.411 418 802.823 418C832.938 418 860.426 405.937 876.808 386.008H879.457V409.609H940.229V0H879.457V168.878H876.808C860.956 149.997 833.468 138.983 802.823 138.983C729.882 138.983 669.103 202.444 669.103 277.967ZM402.731 409.609H463.51V255.94C463.51 219.227 488.35 193.528 522.703 193.528C557.058 193.528 581.897 219.227 581.897 255.94V409.609H642.677V255.94C642.677 191.955 591.411 138.983 522.703 138.983C453.996 138.983 402.731 191.955 402.731 255.94V409.609ZM123.673 252.269L189.209 66.083H192.38L257.916 252.269H123.673ZM0 409.609H68.7074L103.062 312.057H278.529L312.882 409.609H381.589L228.848 0H152.742L0 409.609ZM1669.58 418C1699.71 418 1727.2 405.937 1743.58 386.008H1746.22V409.609H1807V0H1746.22V168.878H1743.58C1727.73 149.997 1700.24 138.983 1669.58 138.983C1596.65 138.983 1535.88 202.444 1535.88 277.967C1535.88 353.49 1597.18 418 1669.58 418Z"
    fill="white"/>
  <path d="M2510.82 0L2380.83 371.465H2373.71L2243.72 0H2202.54L2353.04 418.089H2364.56H2390.15H2401.51L2552 0H2510.82Z"
        fill="white"/>
  <path d="M2178.31 0H1907.31V34.2027H2025.78V417.919H2059.84V34.2027H2178.31V0Z" fill="white"/>
</svg>

<?xml version="1.0" encoding="utf-8"?>
<svg version="1.1" id="Layer_1" xmlns="http://www.w3.org/2000/svg" xmlns:xlink="http://www.w3.org/1999/xlink" x="0px" y="0px"
     viewBox="0 0 2552 419" style="enable-background:new 0 0 2552 419;" xml:space="preserve">
<style type="text/css">
	.st0{fill:#202124;}
</style>
  <g>
	<path class="st0" d="M1597.7,278c0-47.2,34.4-84.4,77.7-84.4s75,36.2,75,84.4s-32.2,85.5-75,85.5
		C1632.6,363.5,1597.7,325.7,1597.7,278z M1448.7,409.6h60.8V147.4h-60.8V409.6z M1439.2,59.8c0,22.6,18.5,40.9,40.2,40.9
		c21.7,0,39.6-18.4,39.6-40.9c0-21-18-38.8-39.6-38.8C1457.7,21,1439.2,38.8,1439.2,59.8z M1200.8,277.4c0-47.2,34.9-83.9,79.8-83.9
		c44.9,0,79.8,36.7,79.8,83.9s-35.4,86-79.8,86C1236.2,363.5,1200.8,325.2,1200.8,277.4z M1139,277.4c0,78.7,62.4,140.6,141.6,140.6
		c79.3,0,141.7-61.9,141.7-140.6S1360.9,139,1280.6,139C1200.3,139,1139,199.3,1139,277.4z M974.6,409.6h60.8V272.2
		c0-54.5,29.1-78.7,77.7-78.7c9,0,15.8,0.5,22.2,2.1v-53c-6.3-2.1-17.4-3.7-29.6-3.7c-82.4,0-131.1,51.4-131.1,133.2V409.6z
		 M730.9,278c0-47.2,34.4-84.4,77.7-84.4c43.3,0,75.1,36.2,75.1,84.4s-32.2,85.5-75.1,85.5C765.8,363.5,730.9,325.7,730.9,278z
		 M669.1,278c0,76,61.3,140,133.7,140c30.1,0,57.6-12.1,74-32h2.6v23.6h60.8V0h-60.8v168.9h-2.6C861,150,833.5,139,802.8,139
		C729.9,139,669.1,202.4,669.1,278z M402.7,409.6h60.8V255.9c0-36.7,24.8-62.4,59.2-62.4c34.4,0,59.2,25.7,59.2,62.4v153.7h60.8
		V255.9c0-64-51.3-117-120-117c-68.7,0-120,53-120,117V409.6z M123.7,252.3l65.5-186.2h3.2l65.5,186.2H123.7z M0,409.6h68.7
		l34.4-97.6h175.5l34.4,97.6h68.7L228.8,0h-76.1L0,409.6z M1669.6,418c30.1,0,57.6-12.1,74-32h2.6v23.6h60.8V0h-60.8v168.9h-2.6
		c-15.8-18.9-43.3-29.9-74-29.9c-72.9,0-133.7,63.5-133.7,139S1597.2,418,1669.6,418z"/>
    <path class="st0" d="M2510.8,0l-130,371.5h-7.1L2243.7,0h-41.2L2353,418.1h11.5h25.6h11.4L2552,0H2510.8z"/>
    <path class="st0" d="M2178.3,0h-271v34.2h118.5v383.7h34.1V34.2h118.5V0z"/>
</g>
</svg>
